www/assets/icons/roundabout_left.svg

<svg xmlns="http://www.w3.org/2000/svg" width="24" height="24" viewBox="0 0 24 24" fill='currentColor'><path d="M10.08 8A6 6 0 0 1 16 3c3.31 0 6 2.69 6 6 0 2.97-2.16 5.44-5 5.92V21h-2v-6.09c0-.98.71-1.8 1.67-1.97a3.999 3.999 0 1 0-4.61-4.61c-.17.96-.99 1.67-1.97 1.67H5.83l1.59 1.59L6 13 2 9l4-4 1.41 1.41L5.83 8z"/></svg>

<svg width="24" height="24" viewBox="0 0 24 24" xmlns="http://www.w3.org/2000/svg" fill='currentColor'><path d="M10.08 8C10.56 5.16 13.02 3 16 3C19.31 3 22 5.69 22 9C22 11.97 19.84 14.44 17 14.92V21H15V14.91C15 13.93 15.71 13.11 16.67 12.94C18.56 12.63 20 10.98 20 9C20 6.79 18.21 5 16 5C14.02 5 12.37 6.44 12.06 8.33C11.89 9.29 11.07 10 10.09 10H5.83L7.42 11.59L6 13L2 9L6 5L7.41 6.41L5.83 8H10.08Z"/></svg>
